src/dsmComponents/Icons/location-settings-24px.svg

<svg width="24" height="24" xmlns="http://www.w3.org/2000/svg" xmlns:xlink="http://www.w3.org/1999/xlink"><defs><path d="M18.75 12l.6 1.8c.3.075.6.15.825.3l1.575-.825 1.05 1.05-.825 1.575c.15.225.225.525.3.75l1.725.6v1.5l-1.725.6c-.075.3-.15.6-.3.825l.825 1.575-1.05 1.05-1.575-.825c-.3.075-.525.225-.825.3L18.75 24h-1.5l-.6-1.725c-.3-.075-.6-.15-.825-.3l-1.575.825-1.05-1.05.825-1.575c-.075-.3-.225-.525-.3-.825L12 18.75v-1.5l1.725-.6c.075-.225.15-.525.3-.75l-.825-1.575 1.125-1.125 1.575.825c.225-.15.525-.225.75-.3l.6-1.725h1.5zM9 0c4.424 0 9 3.366 9 9 0 .325-.031.661-.088 1.004A7.998 7.998 0 0010 18c0 1.265.302 2.457.824 3.52a43.354 43.354 0 01-1.114 1.185 1 1 0 01-1.42 0C7.952 22.363 0 14.289 0 9c0-5.634 4.576-9 9-9zm9 15.75c-1.275 0-2.25.975-2.25 2.25s.975 2.25 2.25 2.25 2.25-.975 2.25-2.25-.975-2.25-2.25-2.25zM9 6a3 3 0 100 6 3 3 0 000-6z" id="location-settings-24px_svg__a"/></defs><use fill="#737373" xlink:href="#location-settings-24px_svg__a" fill-rule="evenodd"/></svg>

<?xml version="1.0" encoding="UTF-8"?>
<svg width="24px" height="24px" viewBox="0 0 24 24" version="1.1" xmlns="http://www.w3.org/2000/svg" xmlns:xlink="http://www.w3.org/1999/xlink">
    <!-- Generator: Sketch 59.1 (86144) - https://sketch.com -->
    <title>location-settings-24px</title>
    <desc>Created with Sketch.</desc>
    <defs>
        <path d="M18.75,12 L19.35,13.8 C19.65,13.875 19.95,13.95 20.175,14.1 L20.175,14.1 L21.75,13.275 L22.8,14.325 L21.975,15.9 C22.125,16.125 22.2,16.425 22.275,16.65 L22.275,16.65 L24,17.25 L24,18.75 L22.275,19.35 C22.2,19.65 22.125,19.95 21.975,20.175 L21.975,20.175 L22.8,21.75 L21.75,22.8 L20.175,21.975 C19.875,22.05 19.65,22.2 19.35,22.275 L19.35,22.275 L18.75,24 L17.25,24 L16.65,22.275 C16.35,22.2 16.05,22.125 15.825,21.975 L15.825,21.975 L14.25,22.8 L13.2,21.75 L14.025,20.175 C13.95,19.875 13.8,19.65 13.725,19.35 L13.725,19.35 L12,18.75 L12,17.25 L13.725,16.65 C13.8,16.425 13.875,16.125 14.025,15.9 L14.025,15.9 L13.2,14.325 L14.325,13.2 L15.9,14.025 C16.125,13.875 16.425,13.8 16.65,13.725 L16.65,13.725 L17.25,12 L18.75,12 Z M9,0 C13.424,0 18,3.366 18,9 C18,9.325 17.969,9.661 17.912,10.004 C13.535,10.052 10,13.611 10,18 C10,19.265 10.302,20.457 10.824,21.52 C10.212,22.193 9.782,22.632 9.71,22.705 C9.522,22.894 9.267,23 9,23 C8.733,23 8.478,22.894 8.29,22.705 C7.952,22.363 0,14.289 0,9 C0,3.366 4.576,0 9,0 Z M18,15.75 C16.725,15.75 15.75,16.725 15.75,18 C15.75,19.275 16.725,20.25 18,20.25 C19.275,20.25 20.25,19.275 20.25,18 C20.25,16.725 19.275,15.75 18,15.75 Z M9,6 C7.343,6 6,7.343 6,9 C6,10.657 7.343,12 9,12 C10.657,12 12,10.657 12,9 C12,7.343 10.657,6 9,6 Z" id="path-1"></path>
    </defs>
    <g id="Final" stroke="none" stroke-width="1" fill="none" fill-rule="evenodd">
        <g id="All-Nucleo-Icons" transform="translate(-608.000000, -4512.000000)">
            <g id="Solo/Nucleo/24px/location-settings" transform="translate(608.000000, 4512.000000)">
                <g id="map-engine">
                    <g id="Colour/Default-Colour">
                        <mask id="mask-2" fill="white">
                            <use xlink:href="#path-1"></use>
                        </mask>
                        <g id="Mask" fill-rule="nonzero"></g>
                        <g id="colour/neutral/chia" mask="url(#mask-2)" fill="#737373">
                            <g transform="translate(-20.000000, -20.000000)" id="Colour">
                                <rect x="0" y="0" width="64" height="64"></rect>
                            </g>
                        </g>
                    </g>
                </g>
            </g>
        </g>
    </g>
</svg>
